svgs/sharp-regular/trash-can-plus.svg

<svg xmlns="http://www.w3.org/2000/svg" viewBox="0 0 448 512"><!--! Font Awesome Pro 6.5.2 by @fontawesome - https://fontawesome.com License - https://fontawesome.com/license (Commercial License) Copyright 2024 Fonticons, Inc. --><path d="M160 0H147.2L140 10.7 93.8 80H80 32 0v48H32V464v48H80 368h48V464 128h32V80H416 368 354.2L308 10.7 300.8 0H288 160zM296.5 80h-145l21.3-32H275.2l21.3 32zM80 464V128H368V464H80zm120-64h48V376 312h64 24V264H312 248V200l0-24H200v24 64H136 112v48h24 64v64 24z"/></svg>

<svg xmlns="http://www.w3.org/2000/svg" viewBox="0 0 448 512"><!--! Font Awesome Pro 6.6.0 by @fontawesome - https://fontawesome.com License - https://fontawesome.com/license (Commercial License) Copyright 2024 Fonticons, Inc. --><path d="M160 0L147.2 0 140 10.7 93.8 80 80 80 32 80 0 80l0 48 32 0 0 336 0 48 48 0 288 0 48 0 0-48 0-336 32 0 0-48-32 0-48 0-13.8 0L308 10.7 300.8 0 288 0 160 0zM296.5 80l-145 0 21.3-32 102.3 0 21.3 32zM80 464l0-336 288 0 0 336L80 464zm120-64l48 0 0-24 0-64 64 0 24 0 0-48-24 0-64 0 0-64 0-24-48 0 0 24 0 64-64 0-24 0 0 48 24 0 64 0 0 64 0 24z"/></svg>
